!!!!SEGMENT: pl-sa--67-a-ii-7--002_haydn-joseph--cassatio-in-es-adagio.krn
!!!cenid: 17xx:571
!!!COM: Haydn, Joseph
!!!COM-rismid: pe55803
!!!CDT: 1732/03/31-1809/05/31
!!!CNT: Austrian
!!!OPR: Cassatio in Es
!!!OTL: Adagio
!!!OMV: 002
!!!PDT:
!!!AGN: Secular; Cassation
!!!SMS-siglum: PL-SA
!!!SMS-shelfmark: 67/A II 7
!!!SMS-shelfwork: 001-002 M
!!!SMS-variant:
!!!SMS-altvar:
!!!NIFC-rismid: 1001076830
!!!URL-scan: http://bc.bdsandomierz.pl/dlibra/publication/1338/edition/1306/content
!!!ONB-nifc: UWAGA: części Cassatio: Allegro, Adagio, Menuet, Presto
!!!key:
**kern	**kern	**kern	**dynam	**kern
*part4	*part3	*part2	*part2	*part1
*staff4	*staff3	*staff2	*	*staff1
*Ibass	*Iviola	*Ivioln	*	*Ivioln
*I"Basso	*I"Viola Obligata	*I"Violino 2do.	*	*I"Violino Prymo
*I'B.	*I'V-la	*I'V-no II	*	*I'V-no I
*clefF4	*clefC3	*clefG2	*	*clefG2
*Trd0c0	*	*	*	*
*k[b-e-]	*k[b-e-]	*k[b-e-]	*	*k[b-e-]
*B-:	*B-:	*B-:	*	*B-:
*M4/4	*M4/4	*M4/4	*	*M4/4
*met(c)	*met(c)	*met(c)	*	*met(c)
=1	=1	=1	=1	=1
!LO:SIC:o:s:=:v:all\right	!	!	!	!LO:SIC:o:s:=:v:all\right
!LO:TX:a:t=Adagio	!LO:TX:a:t=Adagio	!LO:TX:a:t=Adagio	!	!LO:TX:a:t=Adagio
8B-\	16r	16r	.	4bb-\
!	!LO:SIC:o:s:=:v:all\right	!	!	!
.	(16d'\LL	16f'/LL	.	.
8r	16d'\	16f'/	.	.
.	16d'\JJ)	16f'/JJ	.	.
8BB-/	16r	16r	.	8b-\L
.	(16d'\LL	16f'/LL	.	.
8r	16d'\	16f'/	.	8dd\J
.	16d'\JJ)	16f'/JJ	.	.
8F\	16r	16r	.	8.ff\L
.	(16c'\LL	16a'/LL	.	.
8r	16c'\	16a'/	.	.
*	*	*	*	*Xtuplet
.	16c'\JJ)	16a'/JJ	.	(48gg\LL
.	.	.	.	48ff\
.	.	.	.	48ee-\JJJ)
8BB-/	16r	16r	.	8dd\
.	(16c'\LL	16b-'\LL	.	.
8r	16c'\	16b-'\	.	8r
.	16c'\JJ)	16b-'\JJ	.	.
=2	=2	=2	=2	=2
8E-\	16r	16r	.	8gg\
.	(16B-'/LL	16g'/LL	.	.
8r	16B-'/	16g'/	.	4g/
.	16B-'/JJ)	16g'/JJ	.	.
!LO:LB:g=original	!	!	!	!
8E-\	16r	16r	.	.
.	(16e-'\LL	16g'/LL	.	.
8r	16e-'\	16g'/	.	(16ee-\LL
.	16e-'\JJ)	16g'/JJ	.	16cc\JJ)
.	.	.	.	8qqb-/
8F\	16r	16r	.	8.a\L
.	(16c'\LL	16f'/LL	.	.
8r	16c'\	16f'/	.	.
.	16c'\JJ)	16f'/JJ	.	48cc\LL
.	.	.	.	48b-\
.	.	.	.	48a\JJJ
8BB-/	16r	16r	.	4b-\
.	(16B-'/LL	16d'/LL	.	.
8r	16B-'/	16d'/	.	.
.	16B-'/JJ)	16d'/JJ	.	.
=3	=3	=3	=3	=3
8BB-/L	16r	16r	.	4ddd\
.	(16f'\LL	16b-'\LL	.	.
8r	16f'\	16b-'\	.	.
.	16f'\JJ)	16b-'\JJ	.	.
.	.	.	.	8qqccc/
8BB-/J	16r	16r	.	8bb-\L
.	(16g'\LL	16b-'\LL	.	.
.	.	.	.	8qqaa/
8r	16g'\	16b-'\	.	8gg\J
.	16g'\JJ)	16b-'\JJ	.	.
.	.	.	.	8qqff/
!	!	!	!	!LO:SIC:o:s:=:v:być może ee#
8C/L	16r	16r	.	8.een\L
.	(16g'\LL	16b-'\LL	.	.
8r	16g'\	16b-'\	.	.
.	16g'\JJ)	16b-'\JJ	.	16ff\Jk
8C/J	16r	16r	.	8gg\
!	!LO:LB:g=original	!	!	!
.	(16en'\LL	16b-'\LL	.	.
8r	16e'\	16b-'\	.	8r
.	16e'\JJ)	16b-'\JJ	.	.
=4	=4	=4	=4	=4
8F\	16r	16r	.	4ccc\
.	(16f'\LL	16a'/LL	.	.
8r	16f'\	16a'/	.	.
.	16f'\JJ)	16a'/JJ	.	.
.	.	.	.	8qqbb-/
!	!	!LO:LB:g=original	!	!
8F\	16r	16r	.	8aa\L
.	(16e-X'\LL	16cc'\LL	.	.
.	.	.	.	8qqgg/
8r	16e-'\	16cc'\	.	8ff\J
.	16e-'\JJ)	16cc'\JJ	.	.
.	.	.	.	8qqee-X/
8B-\	16r	16r	.	8.dd\L
.	(16d'\LL	16b-'\LL	.	.
8r	16d'\	16b-'\	.	.
.	16d'\JJ)	16b-'\JJ	.	16ee-\Jk
8BB-/	16r	16r	.	8ff\
.	(16d'\LL	16b-'\LL	.	.
8r	16d'\	16b-'\	.	8r
.	16d'\JJ)	16b-'\JJ	.	.
=5	=5	=5	=5	=5
8C/L	16r	16r	.	16een\LL
.	(16en'\LL	16b-'\LL	.	16gg\JJ
!	!	!	!	!LO:LB:g=original
8r	16e'\	16b-'\	.	16r
!	!	!	!	!LO:N:vis=16
.	16e'\JJ)	16b-'\JJ	.	32gg\LLL
!	!	!	!	!LO:N:vis=16
.	.	.	.	32een\JJJ
8C/J	16r	16r	.	16bb-\LL
.	(16e'\LL	16b-'\LL	.	16gg\JJ
8r	16e'\	16b-'\	.	16r
.	16e'\JJ)	16b-'\JJ	.	32gg\LLL
.	.	.	.	32ee\JJJ
8r	16r	16r	.	16ff\LL
.	16f\LL|	16a'\LL	.	16cc\
8C/L	(16g\	(16b-\	.	16cc\
.	16f\JJ)	16a\JJ)	.	16cc\JJ
8r	(16g\LL	(16b-\LL	.	16cc\LL
.	16f\)	16a\)	.	16cc\
8C/J 8E-/	(16g\	(16b-\	.	16cc\
.	16f\JJ)	16a\JJ)	.	16cc\JJ
=6	=6	=6	=6	=6
8C/	16r	16r	.	(16cc\LL
.	(16f'\LL	16a'/LL	.	16ff\JJ)
8r	16f'\	16a'/	.	16r
.	16f'\JJ)	16a'/JJ	.	32aa\LLL
.	.	.	.	32ff\JJJ
8C/	16r	16r	.	16ccc\LL
.	(16f'\LL	16a'/LL	.	16aa\JJ
8r	16f'\	16a'/	.	16r
.	16f'\JJ)	16a'/JJ	.	(32aa\LLL
.	.	.	.	32ff\JJJ)
!	!LO:LB:g=original	!	!	!
8C/	16r	16r	.	16gg\LL
.	16en\LL|	16g'/LL	.	16cc\
8r	16f\	(16a/	.	16cc\
.	16e\JJ	16g/JJ)	.	16cc\JJ
8C/	16f\LL	(16a/LL	.	16cc\LL
.	16e\	16g/)	.	16cc\
8r	16f\	(16a/	.	16cc\
.	16e\JJ	16g/JJ)	.	16cc\JJ
=7	=7	=7	=7	=7
8C/	16r	16r	.	16cc\LL
.	(16e-'\LL	16b-'\LL	.	16gg\JJ
8r	16e-'\	16b-'\	.	16r
.	16e-'\JJ)	16b-'\JJ	.	32gg\LLL
.	.	.	.	32een\JJJ
!LO:LB:g=original	!	!	!	!
8C/	16r	16r	.	16bb-\LL
.	(16e-'\LL	16b-'\LL	.	16gg\JJ
8r	16e-'\	16b-'\	.	16r
!	!	!	!	!LO:LB:g=original
.	16e-'\JJ)	16b-'\JJ	.	(32gg\LLL
.	.	.	.	32een\JJJ)
*	*	*	*	*2\right
8F\	16r	16r	.	2ff\
.	16f'\LL	16a\LL	.	.
8r	(16b-\	(16dd\	.	.
.	16a\JJ)	16cc\JJ)	.	.
8F\	(16b-\LL	(16dd\LL	.	.
.	16a\)	16cc\)	.	.
8r	16g\	(16b-\	.	.
.	16f\JJ	16a\JJ)	.	.
!	!	!LO:LB:g=original	!	!
=8	=8	=8	=8	=8
8D/	16r	16r	.	4ff\
.	16f\LL	16a'/LL	.	.
8r	16f\	16a'/	.	.
.	16f\JJ	16a'/JJ	.	.
8AA/	16r	16r	.	16ff\LL
.	16f\LL	16a/LL	.	16aa\
8r	16f\	16a/	.	16ccc\
.	16f\JJ	16a/JJ	.	16fff\JJ
8BB-/	16r	16r	.	8.ddd\L
.	16f\LL	16g/LL	.	.
8r	16f\	16g/	.	.
.	16f\JJ	16g/JJ	.	32ccc\LL
.	.	.	.	32ccc\JJJ
8C/L	16r	16r	.	8aa\L
.	16A/	16f/	.	.
8C/J	16r	16r	.	8ggT\J
.	16B-/	16en/	.	.
=9	=9	=9	=9	=9
4F\	4c\	4f/	.	8ff\
.	.	.	.	8r
!	!LO:PB:g=original	!	!	!
!LO:TX:a:t=P:problem=mixed beam	!	!	!	!
!	!LO:TX:b:t=pizicato	!	!	!
!LO:TX:b:t=pizicato	!LO:TX:a:t=P:problem=mixed beam	!	!	!
8c\L	8cc\L	16r	.	16r
!	!	!LO:TX:a:t=piZicato	!	!
.	.	16G/	.	16en/
8C/J	8c/J	16r	.	16r
!	!	!	!	!LO:TX:a:t=pizicato
.	.	16g/	.	16b-/
4F\	4f\	16f/LL	.	16a/LL
.	.	16c/	.	16f/
.	.	16c/	.	16f/
.	.	16c/JJ	.	16f/JJ
!LO:TX:a:t=P:problem=mixed beam	!LO:TX:a:t=P:problem=mixed beam	!	!	!
8c\L	8cc\L	16r	.	16r
.	.	16G/	.	16en/
8C/J	8c/J	16r	.	16r
.	.	16een\	.	16bb-\
=10	=10	=10	=10	=10
8F\L	8f\L	16r	.	16r
.	.	16ff\	.	16aa\
8d\	8dd\	16r	.	16r
.	.	16a/	.	16ff\
8B-\	8b-\	16r	.	16r
.	.	16b-/	.	16gg\
8c\J	8cc\J	16r	.	16r
.	.	16g/	.	16een\
.	.	.	.	8qqee/
8F\L	8f\L	4f/	.	4ff\
8C\J	8c\J	.	.	.
4FF/	4F/	4r	.	4r
!	!	!LO:TX:b:t=Verte Citissime	!	!
!	!	!LO:PB:g=original	!	!LO:LB:g=original
=11:||:	=11:||:	=11||	=11||	=11||
!	!	!	!LO:DY:a	!
8.B-\L	8.b-\L	8.b-/L	f	8.b-/L
16F\Jk	16f\Jk	16f/Jk	.	16f/Jk
16.B-\LL	16.b-\LL	16.b-/LL	.	16.b-/LL
32F\K	32f\K	32f/K	.	32f/K
16.d\	16.dd\	16.dd/	.	16.dd/
32A\JJk	32a\JJk	32a/JJk	.	32a/JJk
8.B-\L	8.b-\L	8.b-\L	.	8.b-/L
16F\Jk	16f\Jk	16f\Jk	.	16f/Jk
16.B-\LL	16.b-\LL	16.b-/LL	.	8b-\
32F\K	32f\K	32f/K	.	.
16.D\	16.d\	16.d/	.	8r
32BB-\JJk	32B-\JJk	32B-/JJk	.	.
!LO:LB:g=original	!	!	!	!
=12	=12	=12	=12	=12
8D/	16A-X/LL	16A-X/LL	.	2aa-X\
.	16B-/	16f'/	.	.
8r	16B-/	16f'/	.	.
.	16B-/JJ	16f'/JJ	.	.
8D/	16r	16r	.	.
.	(16B-'/LL	16f'/LL	.	.
8r	16B-'/	16f'/	.	.
!	!LO:SIC:t:=:v:zamazane nuty	!	!	!
.	16B-'/JJ)	16f'/JJ	.	.
8E-\	16r	16r	.	8.gg\L
.	16G/LL	16e-'/LL	.	.
8r	16G/	16e-'/	.	.
.	16G/JJ	16e-'/JJ	.	16aa-\Jk
!	!LO:LB:g=original	!	!	!
8E-\	16r	16r	.	8bb-\L
.	16g\LL	16ee-'\LL	.	.
8r	16g\	16ee-'\	.	16eee-\L
.	16g\JJ	16ee-'\JJ	.	16bb-\JJ
=13	=13	=13	=13	=13
8A-X\	16r	16r	.	8ccc\L
.	16f\LL	16ee-'\LL	.	.
8r	16f\	16ee-'\	.	32bb-\LL
.	.	.	.	32aa-X\JJJ
.	16f\JJ	16ee-'\JJ	.	8gg\L
!LO:TX:a:t=P:problem=mixed beam	!	!	!	!
8B-\L	16r	16r	.	.
.	16e-\	16ee-\	.	24aa-X\L
.	.	.	.	24ff\
8BB-/J	16r	16r	.	.
.	.	.	.	24dd\JJ
.	8f\	16dd\	.	(32ee-\KLL
.	.	.	.	16.b-\JJ)
8E-\	.	16r	.	.
.	16r	16ee-\	.	16B-/
!	!LO:SIC:o:s:=:v:brak szesnastki	!	!	!
16r	16ryy	16r	.	16.e-/LL
16BB-/	16B-/	16B-/	.	.
.	.	.	.	32B-/
!	!	!	!LO:DY:a	!
16.E-\LL	16.e-\LL	16.e-/LL	f	16.g/
!	!	!	!	!LO:SIC:o:s:=:v:brakuje ósemki
32BB-\K	32B-\K	32B-/K	.	32d/JJk
16.G\	16.g\	16.g/	.	8ryy
32D\JJk	32B-\JJk	32d/JJk	.	.
=14	=14	=14	=14	=14
8.E-\L	8e-\L	8.e-/L	.	8.e-/L
.	8g\J	.	.	.
16G\Jk	.	16g/Jk	.	16g/Jk
16A-X\LL	16.a-X\LL	16.a-X\LL	.	16.a-X/LL
16B-\	.	.	.	.
.	32b-\K	32b-\K	.	32b-/K
16c\	16.cc\	16.cc\	.	16.cc/
16d\JJ	.	.	.	.
.	32dd\JJk	32dd\JJk	.	32dd/JJk
!	!	!	!	!LO:LB:g=original
.	.	.	.	8qqff/
!	!	!	!LO:DY:a	!
8e-\	16ee-\LL	16ee-\LL	p	2gg\
.	16g\	16cc\	.	.
8r	16g\	16cc\	.	.
.	16g\JJ	16cc\JJ	.	.
!	!	!LO:LB:g=original	!	!
8F\	16r	16r	.	.
.	16g\LL	16cc#X'\LL	.	.
8r	16g\	16cc#'\	.	.
.	16g\JJ	16cc#'\JJ	.	.
=15	=15	=15	=15	=15
8D\	16r	16r	.	8.ff#X\L
.	16an\LL	16dd'\LL	.	.
8r	16a\	16dd'\	.	.
.	16a\JJ	16dd'\JJ	.	16gg\Jk
8D\	16r	16r	.	8.aan\L
.	16f#X\LL	16dd'\LL	.	.
8r	16f#\	16dd'\	.	.
!	!LO:TX:a:t=a	!	!	!
.	16f#\JJ 16a\	16dd'\JJ	.	32bb-\LL
.	.	.	.	32ccc\JJJ
!	!LO:LB:g=original	!	!	!
8G\	16r	16r	.	(32bb-\LLL
.	.	.	.	32aa\
.	16d\LL	16b-'\LL	.	32gg\)
.	.	.	.	32aa\J
8r	16d\	16b-'\	.	16gg\JJ
.	16d\JJ	16b-'\JJ	.	8gg\L
8B-\	16r	16r	.	.
.	16d-X\LL	16b-'\LL	.	8ff#\J
8r	16d-\	16b-'\	.	.
!	!	!	!	!LO:SIC:o:s:=:v:brakuje szesnastki
.	16d-\JJ	16b-'\JJ	.	16ryy
=16	=16	=16	=16	=16
.	.	.	.	8qqff/
8c\	16r	16r	.	8.een\L
.	16c/LL	16b-'\LL	.	.
8r	16c/	16b-'\	.	.
.	16c/JJ	16b-'\JJ	.	16ddd-X\Jk
8En\	16r	16r	.	8.ddd-\L
.	16c/LL	16b-'\LL	.	.
!LO:LB:g=original	!	!	!	!
8r	16c/	16b-'\	.	.
.	16c/JJ	16g'\JJ	.	32ccc\LL
.	.	.	.	32bb-\JJJ
8F\	16r	16r	.	16aa-X\LL
.	16c/LL	16a-X/LL	.	16gg\
8r	16c/	16a-/	.	16.ff\
.	16c/JJ	16a-/JJ	.	.
.	.	.	.	32ccc\JJk
8D\	16r	16r	.	8.ccc\L
.	16B-/LL	16a-/LL	.	.
8r	16B-/	16a-/	.	.
.	16B-/JJ	16f/JJ	.	32bb-\LL
.	.	.	.	32aa-\JJJ
=17	=17	=17	=17	=17
8E-\	16r	16r	.	16gg\LL
.	16B-/LL	16g'/LL	.	16ff\J
8r	16B-/	16g'/	.	8ee-\J
.	16B-/JJ	16g'/JJ	.	.
8e-\	16r	16r	.	8e-/ 8b-/ 8gg/
.	16g\LL	16b-'\LL	.	.
8r	16g\	16b-'\	.	16r
.	16g\JJ	16b-'\JJ	.	32gg\LLL
.	.	.	.	32bb-\JJJ
8d\	16r	16r	.	16bb-\LL
.	16f\LL	16b-'\LL	.	16ff\JJ
!	!	!	!	!LO:LB:g=original
8r	16f\	16b-'\	.	16r
.	16f\JJ	16b-'\JJ	.	(32bb-\LLL
.	.	.	.	32dd\JJJ)
8c\L	16r	16r	.	(16ff\LL
.	16e-\	16b-/	.	16ee-\JJ)
8F\J	16r	16r	.	16r
.	16e-\	16a/	.	(32ccc\LLL
.	.	.	.	32ee-\JJJ)
=18	=18	=18	=18	=18
!LO:TX:a:t=P:problem=mixed beam	!	!	!	!
8B-\L	16r	16r	.	16ee-\LL
.	16d\LL	16b-'\LL	.	16dd\JJ
8BB-/	16d\	16b-'\	.	16r
.	16d\JJ	16b-'\JJ	.	(32bb-\LLL
.	.	.	.	32ff\JJJ)
!	!LO:LB:g=original	!LO:LB:g=original	!	!
8E-/	16r	16r	.	16gg\LL
.	16c/LL	16b-'\LL	.	16ee-\
8En/J	16c/	16b-'\	.	16cc\
.	16c/JJ	16b-'\JJ	.	16b-\JJ
4F\	16c/LL	16a/LL	.	4f/
.	16A/	16f/	.	.
.	16A/	16f/	.	.
.	16A/JJ	16f/JJ	.	.
16F\LL	16A/LL	16f/LL	.	4r
16E\	16e-/	16e-/	.	.
16D\	16d/	16d/	.	.
16C\JJ	16c/JJ	16c/JJ	.	.
=19	=19	=19	=19	=19
8BB-/	16B-\LL	16B-/LL	.	4bb-\
.	16d\	16d'/	.	.
8r	16d\	16d'/	.	.
.	16d\JJ	16d'/JJ	.	.
8BB-/	16r	16r	.	8b-\L
.	16d\LL	16f'/LL	.	.
8r	16d\	16f'/	.	8dd\J
.	16d\JJ	16f'/JJ	.	.
8F\	16r	16r	.	8.ff\L
.	16c\LL	16a'/LL	.	.
8r	16c\	16a'/	.	.
!	!	!	!	!LO:SIC:o:s:=:v:triola 16
!	!	!	!	!LO:N:vis=24
.	16c\JJ	16a'/JJ	.	(48gg\LL
!	!	!	!	!LO:N:vis=24
.	.	.	.	48ff\
!	!	!	!	!LO:N:vis=24
.	.	.	.	48ee-\JJJ)
.	.	.	.	8qqee-/
8BB-/	16r	16r	.	4dd\
.	16d\LL	16b-'\LL	.	.
8r	16d\	16b-'\	.	.
.	16d\JJ	16b-'\JJ	.	.
=20	=20	=20	=20	=20
8E-\	16r	16r	.	4gg\
.	16B-/LL	16g'/LL	.	.
8r	16B-/	16g'/	.	.
.	16B-/JJ	16g'/JJ	.	.
8E-\	16r	16r	.	8g\L
.	16e-\LL	16g'/LL	.	.
8r	16e-\	16g'/	.	16ee-\L
.	16e-\JJ	16g'/JJ	.	16cc\JJ
.	.	.	.	16qqb-/
8F\	16r	16r	.	8.a\L
.	16c/LL	16e-'/LL	.	.
8r	16c/	16e-'/	.	.
.	16c/JJ	16e-'/JJ	.	(48cc\LL
.	.	.	.	48b-\
.	.	.	.	48a\JJJ)
.	.	.	.	8qqa/
8BB-/	16r	16r	.	4b-\
.	16B-/LL	16d'/LL	.	.
8r	16B-/	16d'/	.	.
.	16B-/JJ	16d'/JJ	.	.
!	!LO:LB:g=original	!	!	!
=21	=21	=21	=21	=21
8F\	16r	16r	.	(16a\LL
.	16A/LL	16e-/LL	.	16cc\JJ)
8r	16A/	16e-/	.	16r
!	!	!	!	!LO:LB:g=original
.	16A/JJ	16e-/JJ	.	(32cc\LLL
.	.	.	.	32a\JJJ)
8F\	16r	16r	.	(16ee-\LL
.	16A/LL	16e-/LL	.	16cc\JJ)
8r	16A/	16e-/	.	16r
.	16A/JJ	16e-/JJ	.	(32cc\LLL
.	.	.	.	32a\JJJ)
!LO:TX:a:t=bis	!	!	!	!
8F\	16r	16r	.	16b-/LL
!	!LO:N:vis=8	!	!	!
.	16B-/LL|	16d'/LL	.	16f/
8r	(16c/	(16e-/	.	16f/
.	16B-/JJ)	16d/JJ)	.	16f/JJ
8F\	(16c/LL	(16e-/LL	.	16f/LL
.	16B-/)	16d/)	.	16f/
!LO:LB:g=original	!	!	!	!
8r	(16c/	(16e-/	.	16f/
.	16B-/JJ)	16d/JJ)	.	16f/JJ
!	!	!LO:LB:g=original	!	!
=22	=22	=22	=22	=22
!LO:TX:a:t=P:problem=takt zapisany repetycją	!	!	!	!
8F\yy	16r	16r	.	16f/LL
.	16B-/LL	16d'/LL	.	16b-/JJ
8ryy	16B-/	16d'/	.	16r
.	16B-/JJ	16d'/JJ	.	(32dd\LLL
.	.	.	.	32b-\JJJ)
8F\yy	16r	16r	.	(16ff\LL
.	16B-/LL	16d/LL	.	16dd\JJ)
8ryy	16B-/	16d/	.	16r
.	16B-/JJ	16d/JJ	.	32dd\LLL
.	.	.	.	32b-\JJJ
!	!	!	!	!LO:TX:a:t=P:problem=mixed beam
8F\yy	16r	16r	.	16cc\LL
!	!LO:N:vis=8	!	!	!
.	16A/LL|	16c/LL	.	16f/
8ryy	16B-/	(16d/	.	16f/
.	16A/JJ	16c/JJ)	.	16f/JJ
8F\yy	16B-/LL	(16d/LL	.	16f/LL
.	16A/	16c/)	.	16f/
8ryy	16B-/	(16d/	.	16f/
.	16A/JJ	16c/JJ)	.	16f/JJ
=23	=23	=23	=23	=23
8F\	16r	16r	.	16f/LL
.	16A/LL	16e-'/LL	.	16cc/JJ
8r	16A/	16e-'/	.	16r
.	16A/JJ	16e-'/JJ	.	(32cc\LLL
.	.	.	.	32a\JJJ)
8F\	16r	16r	.	(16ee-\LL
.	16a\LL	16ee-'\LL	.	16cc\JJ)
8r	16a\	16ee-'\	.	16r
.	16a\JJ	16ee-'\JJ	.	32ccc\LLL
.	.	.	.	32aa\JJJ
8B-\	16r	16r	.	2bb-\
.	16b-\LL	16dd\LL|	.	.
8r	16ee-\	(16gg\	.	.
.	16dd\JJ	16ff\JJ)	.	.
!	!LO:LB:g=original	!	!	!
8B-\	16ee-\LL	(16gg\LL	.	.
.	16dd\	16ff\	.	.
8r	16cc\	16ee-\	.	.
.	16b-\JJ	16dd\JJ)	.	.
!	!	!	!	!LO:LB:g=original
=24	=24	=24	=24	=24
8G\	16r	16r	.	4bb-\
.	16b-\LL	16dd\LL	.	.
8r	16b-\	16dd\	.	.
.	16b-\JJ	16dd\JJ	.	.
8D\	16r	16r	.	(32bb-\LLL
.	.	.	.	32aa\
.	16b-\LL	16dd\LL	.	32bb-\)
.	.	.	.	32ccc\JJJ
8r	16b-\	16dd\	.	(32ddd\LLL
.	.	.	.	32bb-\
.	16b-\JJ	16dd\JJ	.	32aa\)
.	.	.	.	32bb-\JJJ
8E-\	16r	16r	.	8.gg\L
.	16b-\LL	16cc\LL	.	.
8r	16b-\	16cc\	.	.
.	16b-\JJ	16cc\JJ	.	32ff\LL
.	.	.	.	32ee-\JJJ
8F\L	16r	16r	.	8dd\L
.	16d\	16b-\	.	.
8F\J	16r	16r	.	8ccT\J
.	16e-\	16an\	.	.
=25	=25	=25	=25	=25
!	!	!LO:TX:a:t=piZicato	!	!
4BB-/	4d\	4b-\	.	8b-\
.	.	.	.	8r
!LO:TX:b:t=pizicato	!LO:TX:b:t=pizicato	!	!	!
!LO:TX:a:t=P:problem=mixed beam	!LO:TX:a:t=P:problem=mixed beam	!	!	!
8F\L	8F/L	16r	.	16r
!	!	!	!	!LO:TX:b:t=pizicato
.	.	16e-/	.	16cc\
8FF/J	8f\J	16r	.	16r
.	.	16c/	.	16e-/
4BB-/	16B-/LL	16B-/LL	.	16d/LL
.	16D/	16B-/	.	16B-/
.	16D/	16B-/	.	16B-/
.	16D/JJ	16B-/JJ	.	16B-/JJ
!	!	!LO:LB:g=original	!	!
!LO:TX:a:t=P:problem=mixed beam	!LO:TX:a:t=P:problem=mixed beam	!	!	!
8F\L	8f\L	16r	.	16r
.	.	16c/	.	16a/
8FF/J	8F/J	16r	.	16r
.	.	16an/	.	16ee-\
=26	=26	=26	=26	=26
!LO:TX:a:t=P:problem=mixed beam	!	!	!	!
8BB-/L	8B-\L	16r	.	16r
.	.	16b-\	.	16dd\
8G\	8g\	16r	.	16r
.	.	16d/	.	16b-\
8E-\	8e-\	16r	.	16r
.	.	16e-/	.	16cc\
8G\J	8f\J	16r	.	16r
!	!	!	!	!LO:LB:g=original
.	.	16c/	.	16a/
!LO:TX:a:t=P:problem=mixed beam	!	!	!	!
8BB-/L	8B-/L	4B-/	.	4b-\
8B-\J	8F/J	.	.	.
4BB-/	4B-/	4r	.	4r
==;;	==;;	==	==	==
*-	*-	*-	*-	*-
!!!system-decoration: [(s1,s2,s3,s4)]
!!!RDF**dynam: f = for
!!!RDF**dynam: p = pia
!!!EED: Leszek Kubiak
!!!EST: 2020-11-26
!!!AIN: 1 bass 1 viola 2 violn
!!!ENC: Andrzej Gręziak
!!!END: 2020-05-28
!!!RDF**kern: | = vertical stroke
